packages/icons/svg/32/Edit.svg

<svg width="32" height="32" viewBox="0 0 32 32" fill="none" xmlns="http://www.w3.org/2000/svg">
<path fill-rule="evenodd" clip-rule="evenodd" d="M7.2599 23.537L8.37994 17.9368L16.3349 9.98183L21.9917 15.6387L23.7595 13.8709L18.1027 8.21406L20.224 6.09274C21.005 5.3117 22.2714 5.3117 23.0524 6.09274L25.8808 8.92118C26.6619 9.70222 26.6619 10.9686 25.8808 11.7496L14.0368 23.5936L8.4366 24.7137C7.73688 24.8536 7.11996 24.2367 7.2599 23.537Z" fill="#858585"/>
</svg>

<svg width="32" height="32" fill="none" xmlns="http://www.w3.org/2000/svg" viewBox="0 0 32 32"><path fill-rule="evenodd" clip-rule="evenodd" d="M7.26 23.537l1.12-5.6 7.955-7.955 5.657 5.657 1.767-1.768-5.656-5.657 2.121-2.121a2 2 0 012.828 0l2.829 2.828a2 2 0 010 2.829L14.037 23.594l-5.6 1.12a1 1 0 01-1.177-1.177z" fill="currentColor"></path></svg>
